X:1
T:Agnus Dei
T:Missa I super Dixit Maria Hans Leo Hassler
T:Agnus Dei
C:Missa I
C:super Dixit Maria
C:Hans Leo Hassler
%%score [ 1 2 3 4 ]
L:1/8
Q:1/2=80
M:4/2
K:F
V:1 treble nm="Soprano" snm="S."
V:2 treble nm="Alto" snm="A."
V:3 treble-8 transpose=-12 nm="Tenor" snm="T."
V:4 bass nm="Bass" snm="B."
V:1
 z16 | z16 | z16 | z16 | F8 F4 F4 | G8 A4 F4 | A6 G2 A2 =B2 c4- | c4 =B4 c4 A4 | c6 B2 A4 A4 | %9
w: ||||Ky- rie e-|lei- son, e-|lei- * * * *|* * son, Ky-|ri- * e e-|
w: |||||||||
 G8 F4 A4 | B6 c2 d2 c2 B2 A2 | G2 F2 F8 E4 | F8 z4 F4 | F4 F4 G8 | A4 F4 A6 G2 | A2 =B2 c8 B4 | %16
w: lei- son, e-|lei- * * * * *||son, Ky-|rie e- lei-|son, e- lei- *||
w: |||||||
 c4 c4 c8 | A16 || z16 | z16 | z8 z4 c4 | c4 B4 A6 G2 | F8 E4 G4 | A2 B2 c2 A2 B2 c2 d4- | %24
w: son, e- lei-|son.|||Chri-|ste e- lei- *|* son, e-|lei- * * * * * *|
w: ||||||||
 d2 c2 c8 =B4 | c4 G4 A8 | G16 || A12 A4 | G12 ^F4 | G8 G4 c4- | c4 c4 c8 | B12 A4 | A8 A4 =B4 | %33
w: |son, e- lei-|son.|Ky- ri-|e e-|lei- son, Ky|* ri- e|e *|lei- son, Ky-|
w: |||||||||
 c4 c4 d4 _e4 | d2 c2 c8 =B4 | c8 z4 A4 | _B2 A2 G2 F2 E2 F2 G4 | C4 c4 c8 | A16 |][M:4/2] z16 | %40
w: ri- e e- *|lei- * * *|son, e|lei- * * * * * *|son, e- lei-|son.||
w: |||||||
 z8 F8- | F4 F4 G4 G4 | A4 F4 A2 =B2 c4- | c4 =B4 c4 A4- | A4 A4 G6 F2 | E2 C2 c8 A4 | G8 G4 c4- | %47
w: Et|* in ter- ra|pax ho- mi- * *|* ni bus bo-|* nae vo- *|* * * lun-|ta- tis, bo-|
w: |||||||
 c2 B2 A2 G2 F4 D4 | E4 G8 F4- | F4 E4 F4 A4 | B4 A4 G4 G4 | A4 B6 G2 G4 | G4 c8 A4 | B2 A2 A8 G4 | %54
w: * * * * * nae|vo- lun- ta-|* * tis. Lau-|da- mus te. Be-|ne- di- ci- mus|te. A- do-|ra- * * mus|
w: |||||||
 A4 c4 d4 A4 | c6 c2 A4 A4- | A2 A2 A4 G3 G ^F4 | G8 G2 c4 c2 | d4 c4 B3 B A4 | A8 A4 A4- | %60
w: te. Glo- ri- fi-|ca- mus te. Gra-|* ti- as a- gi- mus|ti- bi prop- ter|mag- nam glo- ri- am|tu- am. Do-|
w: ||||||
 A2 A2 d4 c4 _B4 | A4 G4 A8 | A4 =B4 c4 A4 | B4 A2 A3 G G4 ^F2 | G8 z8 | z16 | z16 | c16 | c8 d8- | %69
w: * mi ne De- us,|Rex coe- le-|stis, De- us Pa-|ter o- mni- * * po-|tens.|||Je-|su Chri-|
w: |||||||||
 d8 ^c8 | z4 d6 d2 =B4 | c8 A4 B4- | B4 G4 A2 G2 G4- | G4 ^F4 G4 G4- | G4 A4 =B2 A2 B2 c2 | %75
w: * ste.|Do- mi- ne|De- us, A-|* gnus De- * *|* * i, Fi-|* li- us _ _ _|
w: ||||||
 d4 c8 =B4 | c4 G6 G2 G4 | A2 B2 c2 B2 A2 G2 A4 | G16 || z8 z4 F4 | c4 B2 B2 A2 A2 G4 | %81
w: _ Pa- *|tris, Fi- li- us|Pa- * * * * * *|tris.|Qui|tol- lis pec- ca- ta mun-|
w: ||||||
 A4 z2 G2 A2 B2 c4 | F4 B2 G2 G2 ^F2 G4 | G8 z8 | z16 | z4 c6 c2 c4 | B2 B2 A2 A2 G2 ^F2 G4 | %87
w: di, pec- ca- ta mun-|di, mi- se- re- re no-|bis.||sus- ci- pe|de- pre- ca- ti- o- nem no-|
w: ||||||
 G4 G4 A4 G2 c2 | B3 B A4 G8 | F4 A8 A4 | G4 ^F4 G8 | G4 c8 c4 | B12 A4 | A8 A8 | z16 | %95
w: stram. Qui se- des ad|dex- te- ram Pa-|tris, mi- se-|re- re no-|bis, mi- se-|re- re|no- bis.||
w: ||||||||
 z4 B4 A2 c2 A2 =B2 | c8 z8 | z8 d8- | d4 c4 B8 | A8 A8 | z4 d4 d2 c2 B2 A2 | G4 c4 c2 B2 A2 G2 | %102
w: tu so- lus Do- mi-|nus|Je-|* su Chri-|* ste.|Cum san- * * *|* cto Spi- * * *|
w: |||||||
 F6 F2 F8 | z4 d4 d3 d c4 | B4 A4 G8 | F8 z8 | z16 | z16 | z8 z4 B4 | B3 B A4 G4 F4 | E8 E4 c4 | %111
w: * ri- tu|in glo- ri- a|De- i Pa-|tris,|||in|glo- ri- a De- i|Pa- tris, in|
w: |||||||||
 c3 c B4 A4 G4- | G4 F8 E4 | F8 z4 d4- | d2 c2 B2 A2 B8 | A16 |][M:4/2] F8 F4 F4 | %117
w: glo- ri- a De- i|* Pa *|tris. A||men.|Pa- trem om-|
w: ||||||
 G4 G4 A2 G2 F2 G2 | A2 =B2 c8 B4 | c4 A4 A4 G4 | G8 G4 c4 | F4 D4 d8 | c6 B2 A4 B4 | A8 G8 | %124
w: ni- po- ten- * * *||tem, fac- to- rem|coe- li, fac-|to- rem coe-|li _ _ et|ter- rae|
w: |||||||
 z4 A4 B4 G4 | A4 A4 =B4 c4- | c4 =B4 c4 A4- | A2 A2 A6 A2 B4 | G4 G4 ^F4 F2 G2 | A4 E4 G6 G2 | %130
w: fac- to- rem|coe- li et ter-|* * rae, vi-|* si- bi- li- um|om- ni- um et in|vi- si- bi- li-|
w: ||||||
 G4 c8 c4 | B4 B4 A6 A2 | A4 G8 A4 | B8 A4 G4- | G2 G2 G4 A4 G4 | G4 F4 F4 E4 | F4 A2 A2 G4 A4 | %137
w: um. Et in|u- num Do- mi-|num Je- sum|Chri- stum Fi-|* li- um De- i|u- ni- ge- ni-|tum, et ex pa- tre|
w: |||||||
 B4 A4 G4 G4 | A3 A c4 c4 =B4 | c4 c4 d2 c2 B4 | A8 z8 | z4 c2 c2 d4 c4 | z8 z4 d4- | %143
w: na- tum an- te|om- ni- a sae- cu-|la De- um de De-|o,|De- um ve- rum.|Ge-|
w: ||||||
 d2 d2 d2 d2 _e4 d4 | c6 c2 =B4 c4 | d2 A2 c8 =B4 | c4 G4 A4 _B4- | B2 B2 B4 c6 c2 | %148
w: * ni- tum non fac- tum|con- sub- stan- ti-|a- lem Pa- *|tri: per quem o-|* mni a fac- ta|
w: |||||
 F4 z2 d2 d4 A2 c2 | B3 B A2 A2 G2 A2 B4 | A2 ^F2 G4 G8 | z2 c2 A4 F2 F2 B4- | %152
w: sunt. Qui prop- ter nos|ho- mi- nes, et prop- ter no-|stram sa- lu- tem|de- scen- dit de coe-|
w: ||||
 B2 A2 G2 F2 =E2 F2 G4- | G2 F2 F8 E4 | F16 || A8 G8- | G4 A4 B8 | A8 G4 G4 | A6 A2 B4 c4- | %159
w: ||lis.|Et in-|* car- na-|tus est de|Spi- ri- tu san-|
w: |||||||
 c2 B2 B8 A4 | B8 A8- | A4 A4 G4 ^F4 | G12 G4 | G8 c8- | c4 c4 B8- | B4 A4 A8- | A4 A4 A4 =B4 | %167
w: |cto ex|_ Ma- ri- a|Vir- gi-|ne, ex|_ Ma- ri-|* a, Vir-|* gi ne: Et|
w: ||||||||
 c12 _B4 | A2 G2 G8 ^F4 | G4 G4 A4 A4 | =B2 G2 c8 B4 | c16 ||"^Soprano" c6 B2 A4 c4 | %173
w: ho- mo|fac- * * tus|est, et ho- mo|fac- * * tus|est.|Cru- ci- fi- xus|
w: ||||||
 B2 B2 A4 G2 c4 B2 | A4 G4 z2 c2 A2 d2 | c4 B4 A=B c4 B2 | c4 G4 E4 c2 B2 | A2 G2 F4 z2 F2 B2 d2 | %178
w: e- ti- am pro no- *|* bis, sub Pon- ti-|o Pi- la- * * *|to pas- sus et se-|pul- tus est. Et re- sur-|
w: |||||
 c4 B4 z2 _e3 e d2 | c4 B4 z2 c2 d2 B2 | c2 B2 A2 G2 A2 G4 ^F2 | G4 B2 c2 d4 B4 | %182
w: re- xit ter- ti- a|di- e se- cun- dum|crip- * * * * tu- *|ras. Et as- cen- dit,|
w: ||||
 d2 e2 f4 c2 c2 _e3 d | cB B4 A2 B4 d4- | d4 c6 G2 B4- | B2 B2 A8 G4- | G2 F2 F8 E4 | %187
w: et as- cen- dit in coe *|* * * * lum, se-|* det ad dex-|* te- ram Pa-||
w: |||||
 !fermata!F16 || z16 | z16 | z16 | z16 | z16 | z16 | z16 | z16 | z16 | z16 | z16 || A6 A2 c3 c B4 | %200
w: tris.||||||||||||Et in Spi- ri- tum|
w: |||||||||||||
 A4 A4 G6 G2 | A4 A2 A2 =B2 c2 B4 | c4 G2 G2 A4 c4 | _B2 B2 A4 c2 A2 G4 | F4 c2 c2 _e4 d2 c2 | %205
w: san- ctum Do- mi-|num, et vi- vi- fi- ca-|tem, qui ex Pa- tre|Fi- li- o- que pro- ce-|dit. Qui cum Pa- tre et|
w: |||||
 =B2 B2 c4 d2 d2 c2 c2 | =B4 c2 G2 A2 G2 A2 E2 | G4 G4 B6 A2 | G4 F4 =E4 E2 F2 | GF F4 E2 F4 A4 | %210
w: Fi- li- o si- mul a- do-|ra- tur et con- glo- ri- fi-|ca- tur, qui lo-|cu- tus est per Pro-|phe * * * tas. Et|
w: |||||
 c2 A2 c4 A2 c2 B2 G2 | A8 z4 z2 c2 | dc c4 =B2 c4 c4 | c3 d c2 B2 A2 G2 A4 | %214
w: u- nam san- ctam ca- tho- li-|cam Ec-|cle- * * si- am. Con-|fi- te- or u- num bap- tis-|
w: ||||
 A4 A2 =B2 =c2 d2 _B2 c2 | A2 G2 A4 =B8 | z16 | z16 ||[M:3/2][Q:1/2=120] z8 d4 | d4 d4 c4 | B8 A4 | %221
w: ma in re- mis- si- o- nem|pec- ca- to- rum.|||Et|vi- tam ven-|tu- ri|
w: |||||||
 G8 G4 | A12 | z12 | z12 | z12 | z8 G4 | B4 B4 A4 | G8 F4 | =E6 E2 G4 | F8 E4 || %231
w: sae- cu-|li,||||et|vi- tam ven-|tu- ri|sae- cu- li.|A- *|
w: ||||||||||
[M:4/2][Q:1/2=80] F6 G2 A4 d4- | d2 c2 B2 A2 B8 | A16 |][M:4/2][Q:1/2=92] z16 | z16 | z16 | z16 | %238
w: men, _ _ a-||men.|||||
w: |||||||
 z16 | z16 | z8 F8- | F8 G8 | A2 G2 F2 G2 A2 =B2 c4- | c4 =B4 c8 | z4 _B6 B2 A4 | B4 c4 d4 c2 B2 | %246
w: ||San-|* ctus,|san- * * * * * *|* * ctus|Do- mi- nus|De- us Sa- * *|
w: ||||||||
 A2 =B2 c8 B4 | c8 A8 | c4 c4 B8 | A4 G4 A8 | =B4 c6 c2 d4 | c2 _B2 B8 A4 | B4 d4 d4 c4 | %253
w: * * * ba-|oth. Ple-|ni sunt coe-|li et ter-|ra glo- ri- a|tu- * * *|a, Ho- san- na|
w: |||||||
 B4 A4 G8 | A8 z8 | z16 | z16 | z8 z4 B4 | B4 A4 G4 F4 | E8 E4 c4 | c4 B4 A4 G4- | G4 F8 E4 | %262
w: in ex- cel-|sis,|||ho-|san- na in ex-|cel- sis, ho-|san- na in ex-|* cel- *|
w: |||||||||
 F8 z8 | z4 d4 d4 c4 | B4 A4 B8 | A16 || z16 | z16 | z16 | z16 | z16 | z16 | z16 | z16 | z16 | %275
w: sis,|ho- san- na|in ex- cel-|sis.||||||||||
w: |||||||||||||
 z16 | z16 ||[M:3/2][Q:1/2=120] z8 d4 | d8 c4 | B8 A4 | G6 F2 G4 | A12 | z12 | z12 | z12 | z8 A4 | %286
w: ||Ho-|san- na|in ex-|cel- * *|sis,||||ho-|
w: |||||||||||
 B8 A4 | G8 F4 | c12 | A12 |][M:4/2][Q:1/2=80] z16 | z16 | z16 | z8 F8- | F4 F4 G8 | %295
w: san- na|in ex-|cel-|sis.||||A-|* gnus De-|
w: |||||||||
 A4 F4 A2 =B2 c4- | c4 =B4 c4 A4 | _B6 A2 G2 F2 F4- | F4 E4 F8 | F12 F4 | G8 A4 F4 | A2 =B2 c8 B4 | %302
w: i qui tol- * *|* * lis pec-|ca- * * * ta|_ mun- di,|A- gnus|De- i qui|tol- * * *|
w: |||||||
 c4 A4 _B4 A4 | G2 F2 F8 E4 | F4 A8 A4 | G4 ^F4 G8 | G4 c8 c4 | B12 A4 | A8 A4 G4- | %309
w: lis pec- ca- ta|mun- * * *|di, mi- se-|re- re no-|bis, mi- se|re- re|no- bis, mi-|
w: ||* do- na|no- bis pa-|cem, do- na|no- bis|pa- cem, do-|
 G4 A4 B2 A2 G2 F2 | E4 G4 c8- | c8 A8 | z8 z4 d4- | d4 c4 B4 A4 | B2 c2 d2 c2 B2 F2 B4 | A16 |] %316
w: * se re- * * *|* re no-|* bis,|mi-|* se- re- re|no- * * * * * *|bis.|
w: * na no- * * *|* bis pa-|* cem,|do-|* na no- bis|pa- * * * * * *|cem.|
V:2
 z16 | z16 | C8 C4 C4 | D8 E4 C4 | D6 C2 D2 E2 F4- | F4 E4 F4 D4 | F6 E2 F2 G2 A4 | G4 G4 E4 F4 | %8
w: ||Ky- rie e-|lei- son, e-|lei- * * * *|* * son, e-|lei- * * * *|son, Ky- rie e-|
w: ||||||||
 E2 C2 F4 F4 F4 | D8 C4 F4 | D4 _E4 D2 =E2 F2 E2 | D8 C8 | A,4 D4 D8- | D4 C4 =B,4 C4- | %14
w: lei- * * son, e-|lei- son, Ky-|rie e- lei- * * *||son, e- lei-|* son, Ky- rie|
w: ||||||
 C4 D4 D4 C4- | C4 A,4 D4 D4 | E2 C2 F8 E4 | F16 || z8 A8 | A4 G4 F6 E2 | D8 C4 E4 | %21
w: _ e lei- son,|_ Ky rie e-|lei- * * *|son.|Chri-|ste e- lei- *|* son, Chri-|
w: |||||||
 C4 D4 A,2 B,2 C4- | C4 =B,4 C4 E4 | F4 A4 G8 | C4 G4 G8 | G4 E4 F2 C2 F4 | E16 || F12 F4 | %28
w: ste e- lei- * *|* * son, Chri-|ste e- lei-|son, e- lei-|son, e- lei- * *|son.|Ky- ri-|
w: |||||||
 E4 E4 D4 C4 | D8 E4 G4- | G4 G4 A6 G2 | F8 G4 F4 | E8 ^F4 G4- | G4 A4 F4 G4 | F12 D4 | %35
w: e e- lei- *|* son, Ky-|* ri e _|_ e- *|lei- son, Ky-|* ri- e e-|lei- *|
w: |||||||
 E4 G4 A2 G2 F2 E2 | F2 E2 D4 C4 E4- | E2 C2 F8 E4 | F16 |][M:4/2] B,12 B,4 | C4 C4 D4 B,4 | %41
w: son, e- lei- * * *|* * * son, e-|* * lei *|son.|Et in|ter- ra pax ho-|
w: ||||||
 D2 E2 F8 E4 | F4 D4 C4 A,4 | D8 C8- | C4 F4 E4 D4 | C8 F6 E2 | D8 E4 A,4- | A,2 B,2 C4 D8 | %48
w: mi- * * ni-|bus, ho- mi- ni-|bus bo-|* nae vo- lun-|ta * *|* tis, bo-|* * * nae|
w: |||||||
 C12 C4 | C8 A,4 F4 | G4 F4 E4 D4 | F4 F6 E2 D4 | E4 E4 E4 F4- | F2 E2 D2 C2 D4 D4 | %54
w: vo- lun-|ta- tis. Lau-|da- mus te. Be-|ne- di- ci- mus|te. A- do- ra-|* * * * * mus|
w: ||||||
 C4 F4 F2 G2 F4- | F4 E4 F4 F4- | F2 F2 F4 D3 D C4 | D8 E2 G4 A2 | F4 A4 G3 G F4 | E8 ^F4 F4- | %60
w: te. Glo- ri- fi- ca-|* mus te. Gra-|* ti as a- gi- mus|ti- bi prop- ter|mag- nam glo- ri- am|tu- am. Do-|
w: ||||||
 F2 ^F2 G4 E4 G4 | ^F4 G4 F8 | ^F4 G4 G4 =F4 | F4 _E4 D6 D2 | =B,4 D6 D2 D4 | E4 F4 D4 G4 | %66
w: * mi- ne De- us,|Rex coe- le-|stis, De- us Pa-|ter o- mni- po-|tens. Do- mi- ne|Fi- li u- ni-|
w: ||||||
 F4 D4 E8 | G16 | A4 A8 G2 F2 | G8 A4 A4- | A2 A2 ^F4 G8- | G4 F4 F8 | _E12 E4 | D8 D4 E4- | %74
w: ge- ni- te|Je-|su Chri- * *|* ste. Do-|* mi- ne De-|* us, A-|* gnus|De- i, Fi-|
w: ||||||||
 E4 ^F4 G8 | A8 G8 | G4 E6 E2 E4 | F2 G2 A2 G2 F2 E2 F4 | E16 || C4 F4 E2 E2 D2 D2 | %80
w: * li us|_ Pa-|tris, Fi- li- us|Pa- * * * * * *|tris.|Qui tol- lis pec- ca- ta|
w: ||||||
 C4 D2 E2 F2 F2 E4 | F2 D2 G4 F4 _E4 | D4 F2 E2 D2 C2 D4 | E8 z4 z2 C2 | G4 F2 F2 E2 E2 D4 | %85
w: mun- di, pec- ca- ta mun-|di, pec- ca- ta mun-|di, mi- se- re- re no-|bis. Qui|tol- lis pec- ca- ta mun-|
w: |||||
 C4 G6 G2 A4 | F2 G2 E2 F2 D2 C2 D4 | E4 E4 F4 E2 C2 | D3 D C2 F4 ED E4 | F4 F8 F4 | D4 C4 D8 | %91
w: di, sus- ci- pe|de- pre- ca- ti- o- nem no-|stram. Qui se- des ad|dex- te- ram Pa * * *|tris, mi- se-|re- re no-|
w: ||||||
 E4 G8 A4 | F8 G4 F4 | E8 ^F8 | z16 | z4 D4 =F2 E2 F2 D2 | C8 z8 | z8 F8- | F4 A4 G6 F2 | %99
w: bis, mi- se-|re- * re|no- bis.||tu so- lus Do- mi-|nus|Je-|* su Chri- *|
w: ||||||||
 E8 ^F4 A4 | A2 G2 =F2 E2 D4 D4 | E4 E4 F4 C4 | D4 D4 C6 C2 | D4 F4 F3 F C4 | D2 E2 F6 ED E4 | %105
w: * ste. Cum|san- * * * * cto|Spi- ri- tu, cum|san- cto Spi- ri-|tu in glo- ri- a|De- i Pa * * *|
w: ||||||
 F4 A4 A3 A G4 | F4 E4 D8 | E4 A4 A3 A G4 | F4 E4 D2 E2 F4- | F4 E4 D8 | C4 G4 G6 F2 | E8 E4 D4 | %112
w: tris, in glo- ri- a|De- i Pa-|tris, in glo- ri- a|De- i Pa- * *|* tris. A-|men, in glo- ri-|a De- i|
w: |||||||
 C4 C4 C8 | A,4 A6 G2 F2 E2 | D2 E2 F4 F8- | F16 |][M:4/2] z16 | z16 | z16 | C8 C4 C4 | %120
w: Pa- tris. A-|,men. A- * * *|* * * men.|_||||Pa- trem o-|
w: ||||||||
 D4 D4 E4 D2 C2 | D2 C2 B,2 C2 D2 E2 F4- | F4 E4 F4 D4 | D4 C4 =B,4 C4- | C4 F4 G4 D4 | %125
w: mni- po- ten- * *||* * tem, om-|ni- po- ten- tem,|_ fac- to- rem|
w: |||||
 E4 ^F4 G4 A4 | G8 G4 =F4- | F2 F2 F6 F2 F4 | _E4 D4 D4 D2 =E2 | F4 C4 D6 D2 | E4 G8 A4 | %131
w: coe- * li et|ter- rae, vi|* si- bi- li- um|om- ni- um et in|vi- si- bi- li-|um. Et in|
w: ||||||
 F4 G4 E6 E2 | F4 D8 F4 | F8 F4 D4- | D2 D2 E4 F4 D4 | E4 D4 D4 C4 | C4 F2 F2 E4 F4 | G4 F4 D4 E4 | %138
w: u- num Do- mi-|num Je- sum|Chri- stum Fi-|* li- um De- i|u- ni- ge- ni-|tum, et ex pa- tre|na- tum an- te|
w: |||||||
 F3 F E4 F4 D4 | E2 G4 A2 D2 F4 E2 | F4 F4 A2 G2 F3 F | E2 G2 E2 A4 G2 A2 A2 | D2 F2 E4 F4 F4- | %143
w: om- ni- a sae- cu-|la De- um de De *|o, lu- men de lu- mi-|ne, De- um ve * rum de|De- o ve- ro. Ge-|
w: |||||
 F2 F2 F2 F2 G4 F4 | F6 E2 G4 G4 | F4 E4 D4 G4 | E4 E4 F4 G4- | G2 G2 F4 _E6 E2 | %148
w: * ni- tum non fac- tum|con- sub- stan- ti-|a- lem Pa- *|tri: per quem o-|* mni- a fac- ta-|
w: |||||
 D4 F4 F2 G2 F2 F2- | F2 E2 F2 F2 D2 F2 F4 | F2 C2 D4 E2 G2 E4 | C6 C2 D4 F2 F2 | _E4 B,2 B,2 C8 | %153
w: sunt. Qui prop- ter nos ho-|* mi- nes, et prop- ter no-|stram sa- lu- tem de- scen-|dit, de- scen- dit de|coe- lis, de- scen-|
w: |||||
 C4 C4 C8 | C16 || F8 E8- | E4 F4 G8 | F8 E4 D4 | F6 F2 G8 | F16 | F8 F8- | F4 F4 D4 C4 | D12 D4 | %163
w: dit de coe-|lis.|Et in-|* car- na-|tus est de|Spi- ri- tu|san-|cto ex|_ Ma- ri- a|Vir- gi-|
w: ||||||||||
 E8 G8- | G4 A4 F8 | G4 F4 E8- | E4 E4 ^F4 G4 | A12 G4 | _E8 D8 | D4 E4 F4 E4 | G12 G4 | E16 || %172
w: ne, ex|* Ma- ri-|* a, Vir-|* gi- ne: Et|ho- mo|fac- tus|est, et ho- mo|fac- tus|est.|
w: |||||||||
"^Alto" z8 F6 E2 | D4 F4 _E2 E2 D4 | C2 F4 =E2 F8 | z2 F2 D2 G2 F2 E2 D4 | C8 C4 A,4 | %177
w: Cru- ci-|fi- xus e- ti- am|pro no- * bis,|sub Pon- ti- o Pi- la-|to pas- sus|
w: |||||
 F2 E2 D2 C2 B,8 | z2 F,2 B,2 D2 C4 B,4 | z2 _E3 E D2 C4 B,4 | z2 C2 D2 B,2 C4 A,4 | %181
w: et se- pul- tus est.|Et re- sur- re- xit|ter- ti- a di- e|se- cun- dum scrip- tu-|
w: ||||
 G,8 B,2 C2 D4 | B,4 D2 E2 F4 C2 C2 | _E3 D C4 B,8 | F8 _E6 B,2 | D6 D2 C8 | B,6 A,2 G,8 | %187
w: ras. Et as- cen-|dit, et as- cen- dit in|coe- * * lum,|se- det ad|dex- te- ram|Pa- * *|
w: ||||||
 !fermata!F,16 || z16 | z16 | z16 | z16 | z16 | z16 | z16 | z16 | z16 | z16 | z16 || %199
w: tris.||||||||||||
w: ||||||||||||
 F6 F2 F3 F F4 | F4 F4 D4 E4 | F4 F2 E2 G2 A2 G4 | G4 E2 E2 F6 C2 | D2 E2 F4 E2 F2 E4 | %204
w: Et in Spi- ri- tum|san- ctum Do- mi-|num, et vi- vi- fi- ca-|tem, qui ex Pa- tre|Fi- li- o- que pro- ce-|
w: |||||
 F4 F2 F2 G4 F2 A2 | G2 G2 G4 G2 G2 E2 A2 | G4 G2 E2 F2 C2 C2 C2 | D4 E4 F6 _E2 | %208
w: dit. Qui cum Pa- tre et|Fi- li- o si- mul a- do-|ra- tur et con- glo- ri- fi-|ca- tur, qui lo-|
w: ||||
 _E4 C4 C4 C2 A,2 | D4 C4 C4 z2 F2 | A2 F2 A4 F2 C2 D2 E2 | F8 z4 z2 E2 | A4 G4 E4 G4 | %213
w: cu- tus est per Pro-|phe- * tas. Et|u- nam san- ctam ca- tho- li-|cam Ec-|cle- si- am. Con-|
w: |||||
 A3 A A2 G2 E2 D2 E4 | E4 E2 G2 A2 A2 G2 _E2 | ^F2 G2 F4 G4 D2 D2 | F4 E4 F2 G2 F2 D2 | %217
w: fi- te- or u- nem bap- tis-|ma in re- mis- si- o- nem|pec- ca- to- rum. Et ex-|spec- to re- sur- re- cti-|
w: ||||
 C2 D2 B,2 B,2 C8 ||[M:3/2] D8 F4 | F4 F4 C4 | D8 F4 | E8 E4 | F8 A4 | A4 A4 G4 | F8 E4 | D8 D4 | %226
w: o- nem mor- tu- o-|rum. Et|vi- tam ven-|tu- ri|sae- cu-|li, et|vi- tam ven-|tu- ri|sae- cu-|
w: |||||||||
 E8 E4 | F4 F4 _E4 | _E8 C4 | C6 C2 C4- | C4 C8 ||[M:4/2] C4 A6 G2 F2 E2 | D4 F4 F8 | F16 |] %234
w: li, et|vi- tam ven-|tu- ri|sae- cu- li.|_ A-|men, a- * * *|* men, a-|men.|
w: ||||||||
[M:4/2] z16 | z16 | z16 | C16 | D8 E2 D2 C2 D2 | E2 F2 G6 F2 F4- | F4 E4 F4 D4- | D2 D2 C4 D4 E4 | %242
w: |||San-|ctus, san- * * *||* * ctus Do-|* mi- nus De- us|
w: ||||||||
 F4 C4 F4 G4 | F4 D4 E4 G4- | G2 G2 F4 F8 | D4 F6 F2 G4 | F4 E4 G6 G2 | G8 F8 | A4 G4 G8 | %249
w: Sa- * * *|* ba- oth, Do|* mi- nus De-|us, Do- mi- nus|De- us Sa- ba-|oth. Ple-|ni sunt coe-|
w: |||||||
 ^F4 G4 F8 | G4 A6 A2 F4 | G8 F8 | D4 F4 F6 C2 | D2 E2 F8 E4 | F4 A4 A4 G4 | F4 E4 D8 | %256
w: li et ter-|ra glo- ri- a|tu- *|a, Ho- san- na|in ex- cel- *|sis, ho- san- na|in ex- cel-|
w: |||||||
 E4 A4 A4 G4 | F4 E4 D2 E2 F4- | F4 E4 D8 | C4 G4 G6 F2 | E12 D4 | C8 C8 | z4 A4 A4 G4 | %263
w: sis ho- san- na|in ex- cel- * *||sis, ho- san- na|in ex-|cel- sis,|ho- san- na|
w: |||||||
 F6 E2 D4 E4 | F16 | F16 ||"^Alto" z16 | z16 | z16 | F12 B,4 | _E8 D2 C2 D2 =E2 | F4 G8 F4- | %272
w: in _ _ ex-|cel-|sis.||||Be- ne-|dic- tus _ _ _|_ qui ve-|
w: |||||||||
 F4 E4 F8- | F8 z4 F4 | D2 E2 F4 B,2 C2 D4 | z4 F4 G2 G2 D4 | _E6 D2 C6 C2 ||[M:3/2] D8 F4 | %278
w: * * nit|_ in|no- mi- ne Do- mi- ni|in no- mi- ne|Do- * * mi-|ni. Ho-|
w: ||||||
 F8 C4 | D8 F4 | =E6 D2 E4 | F8 A4 | A8 G4 | F8 E4 | D6 C2 D4 | E8 F4 | F8 _E4 | _E8 C4 | %288
w: san- na|in ex-|cel- * *|sis, ho-|san- na|in ex-|cel- * *|sis, ho-|san- na|in ex-|
w: ||||||||||
 =E6 D2 E4 | F12 |][M:4/2] z16 | z8 C8- | C4 C4 D8 | E4 C4 D6 C2 | D2 E2 F8 E4 | F4 D4 C4 A,4 | %296
w: cel- * *|sis.||A-|* gnus De-|i qui tol- *||lis pec- ca- ta|
w: ||||||||
 D8 C4 F4 | D8 D4 D4 | C6 B,2 A,4 D4 | D8 D4 C4 | =B,4 C8 D4 | E4 A4 G8 | G4 F4 F4 F4 | D8 C8 | %304
w: mun- di, qui|tol- lis pec-|ca- * * ta|mun- di, qui|tol- lis pec-|ca- ta mun-|di, pec- ca- ta|mun- *|
w: ||||||||
 C4 F8 F4 | D4 C4 D8 | E4 G8 A4 | (F8 G4) F4 | E8 F4 D4- | D4 F4 F2 E2 D4 | C4 E6 C2 F4- | %311
w: di, mi- se-|re- re no-|bis, mi- se|re- * re|no- bis, mi-|* se re- * *|re no- * *|
w: * do- na|no- bis pa-|cem, do- na|no- * bis|pa- cem, do-|* na no- * *|bis pa- * *|
 F4 E4 F4 A4- | A4 G4 F6 E2 | D4 E4 F8- | F16 | F16 |] %316
w: * * bis, mi-|* se- re- *|* re no-||bis.|
w: * * cem, do-|* na no- *|* bis pa-||cem.|
V:3
 F8 F4 F4 | G8 A4 F4 | A6 G2 A2 =B2 c4- | c4 =B4 c4 A4 | _B6 A2 B2 c2 d2 A2 | B2 G2 c4 F4 B4 | %6
w: Ky- ri e-|lei- son, e-|lei- * * * *|* * son, e-|lei- * * * * *|* * * son, e-|
w: ||||||
 c2 A2 d4 c4 A4 | d8 c8 | z4 F4 F4 F4 | G8 A4 F4 | G6 A2 B2 c2 d2 c2 | B6 A2 G8 | F4 B4 A2 F2 B4 | %13
w: lei- * * son, e-|lei- son,|Ky- rie e-|lei- son, e-|lei- * * * * *||son, Ky- ri- * e|
w: |||||||
 A8 G8 | F16 | z4 F4 F4 F4 | G4 A4 G8 | F16 || c8 c4 d4 | A2 B2 c2 G2 B2 A2 A4- | A4 G4 A4 c4 | %21
w: e- lei-|son,|Ky- rie e-|lei- * *|son.|Chri- ste e-|lei- * * * * * *|* * son, Chri-|
w: ||||||||
 A4 B4 c8 | d8 G4 c4 | F4 f4 d6 e2 | f4 e4 d8 | e4 c4 c8 | c16 || c12 c4 | c8 =B4 c4- | %29
w: ste e- lei-|* son, Chri-|ste e- lei- *||son, e- lei-|son.|Ky- ri-|e e- lei-|
w: ||||||||
 c4 =B4 c4 e4- | e4 e4 f2 c2 f2 e2 | d2 c2 d8 d4- | d2 ^c=B c4 d4 d4 | e4 f4 d4 B4 | A6 G2 F8 | %35
w: * * son, Ky-|* ri e _ _ _|_ _ _ e-|* * * lei- son, Ky-|* ri- e e-|lei- * *|
w: ||||||
 G8 z4 d4 | d2 c2 B2 A2 G4 E4 | A8 G8 | F16 |][M:4/2] z16 | z16 | z16 | F12 F4 | G4 G4 A4 F4 | %44
w: son, e-|lei- * * * * son,|e- lei-|son.||||Et in|ter- ra pax ho-|
w: |||||||||
 A2 =B2 c8 B4 | c4 A4 F4 F4 | G8 z4 F4- | F2 G2 A8 B4 | G8 A8 | G8 F4 c4 | _e4 c4 c4 =B4 | %51
w: mi- * * ni|bus, ho- mi- ni-|bus, bo-|* * * nae|vo- lun-|ta- tis. Lau-|da- mus te. Be-|
w: |||||||
 c4 d6 c2 =B4 | c4 c4 A4 d4- | d2 c2 B2 A2 B4 B4 | A4 A4 B4 F4 | G6 G2 F4 c4- | %56
w: ne- di- ci- mus|te. A- do- ra-|* * * * * mus|te. Glo- ri- fi-|ca- mus te. Gra-|
w: |||||
 c2 c2 c4 =B3 B c4- | c4 =B4 c2 e4 f2 | d4 f4 d3 d d2 d2- | d2 ^c=B c4 d4 d4- | d2 d2 =B4 c4 G4 | %61
w: * ti- as a- gi- mus|_ ti- bi prop- ter|mag- nam glo- ri- a tu-|* * * * am. Do-|* mi ne De- us,|
w: |||||
 d4 _e4 d8 | d8 _e4 c4 | d4 c2 c2 B2 AG A2 A2 | G4 _B6 B2 d4 | c6 d2 =B4 c4 | A4 =B4 c8 | e16 | %68
w: Rex coe- le-|stis, De- us|Pa- ter o- mni- * * * po-|tens. Do- mi- ne|Fi- li u- ni-|ge- ni- te|Je-|
w: |||||||
 f8 d8- | d8 e8 | d6 d2 =B4 d4 | c4 A4 c4 d4 | G4 B4 c8 | A8 =B4 c4- | c4 c4 d8 | f6 e2 d8 | %76
w: su Chri-|* ste.|Do- mi- ne De-|us, Ag- nus De-|i, A- gnus|De- i, Fi-|* li- us|Pa- * *|
w: ||||||||
 e4 c6 c2 c4 | c2 B2 A2 B2 c8 | c16 || z4 F4 c4 B2 B2 | A2 A2 G4 F2 F2 c4 | c2 d4 c4 B4 A2 | %82
w: tris, Fi- li- us|Pa- * * * *|tris.|Qui tol- lis pec-|ca- ta mun- di, qui tol-|lis pec- ca- ta mun-|
w: ||||||
 B4 d2 c2 =B2 c2 B4 | c2 G2 c4 B2 B2 A2 A2 | G4 A2 =B2 c2 c2 B4 | c4 e6 e2 f4 | %86
w: di, mi- se- re- re no-|bis. Qui tol- lis pec- ca- ta|mu- nd, pec- ca- ta mun-|di, sus- cu- pe|
w: ||||
 d2 d2 c2 d2 =B2 c2 B4 | c8 z8 | z16 | z4 c8 c4 | =B2 B2 c8 B4 | c4 e8 f4 | d12 d4- | %93
w: de- pre- ca- ti- o- nem no-|stram.||mi- se-|re- re no *|bis, mi- se-|re- re|
w: |||||||
 d4 ^c4 d4 d2 d2 | c4 A4 B2 c2 A4 | G8 z8 | z4 A4 c4 A2 c2 | B3 B A4 d6 c2 | B4 A4 d2 B2 d4- | %99
w: _ no- bis. Quo- ni-|am tu so- lus sanc-|tus,|tu so- lus al-|tis- si- mus Je- *|* su Chri- * *|
w: ||||||
 d4 ^c4 d8 | d4 d2 c2 B2 A2 G4 | c4 c2 B2 A2 G2 F2 G2 | A2 F2 B8 A4 | B4 B4 B3 B A4 | G4 F4 c8 | %105
w: * * ste.|Cum san- * * * *|cto Spi- * * * * *|* * * ri|tu in glo- ri- a|De- i Pa-|
w: ||||||
 F4 c4 c3 c G4 | A2 =B2 c6 BA B4 | c4 c4 c3 c G4 | A8 B4 d4 | d3 d c4 B4 A4 | G8 G4 E4 | %111
w: tris, in glo- ri- a|De- i Pa * * *|tris, in glo- ri- a|De- i, in|glo- ri- a De- i|Pa- tris, in|
w: ||||||
 A3 A G4 c4 B4 | A4 A4 G8 | F4 c4 A8 | f2 e2 d2 c2 d8 | c16 |][M:4/2] z16 | z8 F8 | F4 F4 G4 G4 | %119
w: glo- ri- a De- i|Pa- tris. A-|men. A- men,|A- * * * *|men.||Pa-|trem om- ni- po-|
w: ||||||||
 A2 G2 F2 G2 A2 =B2 c4- | c4 =B4 c4 A4 | _B2 c2 d2 c2 B6 A2 | G4 G4 F8- | F8 G4 G4 | A4 d4 d8 | %125
w: ten- * * * * * *|* * tem, o-|mni- * * * * *|* po- ten-|* tem, fac-|to- rem coe-|
w: ||||||
 c8 d4 f4 | d8 e4 c4- | c2 c2 c6 c2 d4 | B4 B4 A4 A2 c2 | c2 A2 c8 =B4 | c4 e8 f4 | d4 d4 ^c6 c2 | %132
w: * li et|ter- rae, vi|* si- bi- li- um|om- ni- um et in|vi- si- bi- li-|um. Et in|u- num Do- mi-|
w: |||||||
 d4 B8 =c4 | d8 c4 =B4- | B2 =B2 c4 c4 B4 | c4 A4 _B4 G4 | A4 c2 c2 c4 c4 | _e4 c4 =B4 c4 | %138
w: num Je- sum|Chri- stum Fi-|* li- um De- i|u- ni- ge- ni-|tum, et ex pa- tre|na- tum an- te|
w: ||||||
 c3 c c4 A4 d4 | c4 c4 _B2 A2 G4 | F4 c2 c2 A2 c4 =B2 | c4 c2 A2 B4 A2 A2 | B2 F2 G4 A4 B4- | %143
w: om- ni- a sae- cu-|la De- um de De-|o, lu- men de lu- mi-|ne, De- um ve- rum de|De- o ve- ro. Ge-|
w: |||||
 B2 B2 B2 B2 B4 B4 | A6 c2 d4 G4 | A4 G4 A4 d4 | c4 c4 c4 G4- | G2 G2 B2 B4 AG A2 A2 | %148
w: * ni- tum non fac- tum|con- sub- stan- ti-|a- lem Pa- *|tri: per quem o-|* mni- a fac- * * * ta|
w: |||||
 B4 B4 B4 F2 A2 | G3 G F2 c2 B2 c2 d4 | c2 c2 =B4 c4 z2 c2 | A4 F2 F2 A4 d2 d2 | G8 G4 E4 | A8 G8 | %154
w: sunt. Qui prop- ter nos|ho- mi- nes, et prop- ter no-|stram sa- lu- tem de-|scen- dit de coe- lis, de-|scen- dit de|coe- *|
w: ||||||
 A16 || c8 c8- | c4 c4 _e8 | c8 c4 =B4 | c6 c2 _e8 | d4 c2 B2 c8 | d8 c8- | c4 c4 =B2 B2 c4- | %162
w: lis.|Et in-|* car- na-|tus est de|Spi- ri- tu|san- * * *|cto ex|_ Ma- ri- a Vir-|
w: ||||||||
 c4 =B2 A2 B4 B4 | c8 e8- | e4 f4 d8 | d4 d8 ^c2 =B2 | ^c4 c4 d4 d4 | f12 d4 | c6 B2 A4 A4 | %169
w: * * * * gi-|ne, ex|_ Ma- ri-|a Vir- * *|* gi- ne: Et|ho- mo|fac * * tus|
w: |||||||
 =B4 c4 c4 c4 | d4 e4 d6 d2 | c16 || z16 | z16 | z16 | z16 | z16 | z16 | z16 | z16 | z16 | z16 | %182
w: est, et ho- mo|fac- * * tus|est.|||||||||||
w: |||||||||||||
 z16 | z16 | z16 | z16 | z16 | z16 ||"^Tenor" z4 F4 A3 A A2 G2 | A2 =B2 c2 A2 d3 d c4 | %190
w: ||||||Et i- te- rum ven-|tu- rus est cum glo- ri- a,|
w: ||||||||
 B2 A2 A2 GF G8 | F4 c4 d2 f2 e2 d2 | c4 z2 F2 A2 c2 B2 A2 | G4 z2 c4 A2 d4- | d2 B4 G2 B2 B2 A4 | %195
w: ju- di- ca- * * *|re vi- vos et mor- tu-|os, vi- vos et mor- tu-|os: cu- jus reg-|* ni non e- rit fi-|
w: |||||
 G4 d2 d2 _e4 d4 | ^c4 d6 =c2 B2 A2 | G4 A4 G8 | !fermata!F16 || c6 c2 c3 c d4 | c4 d4 =B4 c4 | %201
w: nis, cu- jus reg- ni|non e- * * *|* rit fi-|nis.|Et in Spi- ri- tum|san- ctum Do- mi-|
w: ||||||
 c4 c2 c2 d2 f2 d4 | e4 c2 c2 F4 A4 | G2 G2 F4 A3 B c4 | F4 A2 A2 B4 B2 A2 | d2 d2 e4 d2 B2 c2 f2 | %206
w: num, et vi- vi- fi- ca-|tem, qui ex Pa- tre|Fi- li- o- que pro- ce-|dit. Qui cum Pa- tre et|Fi- li- o si- mul a- do-|
w: |||||
 d4 e2 c2 c2 c2 A2 c2 | =B4 c4 d6 c2 | B4 A4 G4 G2 F2 | B3 A G4 A8 | z16 | z2 c2 A2 c2 B3 B A2 c2 | %212
w: ra- tur et con- glo- ri- fi-|ca- tur, qui lo-|cu- tus est per Pro-|phe- * * tas.||Et a- po- sto- li- cam Ec-|
w: ||||||
 f4 d4 c4 e4 | f3 f f2 d2 ^c2 d2 c4 | ^c4 c2 d2 f2 f2 _e2 e2 | d2 B2 d4 d4 =B2 B2 | %216
w: cle- si- am. Con-|fi- te- or u- nem bap- tis-|ma in re- mis- si- o- nem|pec- ca- to- rum. Et ex-|
w: ||||
 c6 _B2 A2 G2 A2 B2 | A2 F2 G2 B4 AG A4 ||[M:3/2] B8 B4 | B4 B4 A4 | G8 F4 | c8 c4 | F8 c4 | %223
w: spec- to re- sur- re- cti-|o- nem mor- tu- o- * *|rum. Et|vi- tam ven-|tu- ri|sae- cu-|li, et|
w: |||||||
 c4 c4 G4 | A8 c4 | =B8 B4 | c8 c4 | d4 d4 c4 | B8 A4 | G6 G2 (G4 | A4) G8 ||[M:4/2] A4 c4 c4 f4- | %232
w: vi- tam ven-|tu- ri|sae- cu-|li, et|vi- tam ven-|tu- ri|sae- cu- li.|_ A-|men, a- men, a-|
w: |||||||||
 f2 e2 d2 c2 d8 | c16 |][M:4/2] z16 | z8 F8- | F8 G8 | A2 G2 F2 G2 A2 =B2 c4- | %238
w: |men.||San-|* ctus,|san- * * * * * *|
w: ||||||
 c2 =B2 B2 AB c4 A4 | G4 E4 A8 | G8 F4 B4- | B2 B2 A4 B4 c4 | F2 G2 A2 B2 c4 G4 | A4 G6 G2 G4 | %244
w: * * * * * * ctus,|san- * *|* ctus Do-|* mi- nus De- us|Sa- * * * * ba-|oth, Do- mi- nus|
w: ||||||
 _B4 d4 c4 c4 | B4 A6 A2 G4 | c4 c4 d6 d2 | e8 c8 | f4 _e4 d8 | d4 B4 d8 | d4 f6 f2 d4 | %251
w: De- us Sa- ba-|oth, Do- mi- nus|De- us Sa- ba-|oth. Ple-|ni sunt coe-|li et ter-|ra glo- ri- a|
w: |||||||
 _e6 d2 c8 | d4 B4 B4 A4 | G4 F4 c8 | F4 c4 c6 G2 | A2 =B2 c8 B4 | c4 c8 G4 | A8 B4 d4 | %258
w: tu- * *|a, Ho- san- na|in ex- cel-|sis, ho- san- na|in ex- cel- *|sis, in ex-|cel- sis, ho-|
w: |||||||
 d4 c4 B4 A4 | G8 G4 E4 | A4 B4 c4 B4 | A4 G2 F2 G8 | F2 G2 A2 B2 c8 | z4 f4 f4 e4 | d4 c4 d8 | %265
w: san- na in ex-|cel- sis, ho-|san- na in ex-|cel- * * *|sis, _ _ _ _|ho san- na|in ex- cel-|
w: |||||||
 c16 ||"^Tenor" c12 F4 | B8 A2 G2 A2 B2 | c4 d4 G2 A2 B2 G2 | A4 B4 A4 G4- | G4 A4 B8 | %271
w: sis.|Be- ne-|dic- tus _ _ _|_ qui ve- * * *|* * nit, be-|* ne- dic-|
w: ||||||
 A4 G4 A4 G2 F2 | G8 A4 c4 | A2 B2 c4 F2 G2 A4 | z4 f4 d2 e2 f4 | B2 c2 d2 d2 _e4 B4 | c4 B8 A4 || %277
w: tus qui ve- * *|* nit in|no- mi- ne Do- mi- ni|in no- mi- ne|Do- mi- ni, in no- mi-|ne Do- mi-|
w: ||||||
[M:3/2] B8 B4 | B8 A4 | G8 F4 | c12 | F8 c4 | c8 G4 | A8 c4 | =B6 A2 B4 | c8 c4 | d8 c4 | B8 A4 | %288
w: ni. Ho-|san- na|in ex-|cel-|sis, ho-|san- na|in ex-|cel- * *|sis, ho-|san- na|in ex-|
w: |||||||||||
 G6 F2 G4 | F12 |][M:4/2] F12 F4 | G8 A4 F4 | A2 =B2 c8 B4 | c4 A4 _B6 A2 | B4 d4 c8 | F4 F8 F4 | %296
w: cel- * *|sis.|A- gnus|De- i, qui|tol- * * *|lis pec- ca- *|* ta mun-|di, A- gnus|
w: ||||||||
 G8 A4 F4 | G2 F2 G2 A2 B6 A2 | G8 F4 B4 | A4 B4 A8 | G8 z4 d4 | c4 f4 d8 | e4 c4 d4 c4 | %303
w: Dei- i qui|tol- * * * * *|* lis pec-|ca- ta mun-|di, pec-|ca- ta mun-|di, pec- ca- ta|
w: |||||||
 B6 A2 G8 | A4 c8 c4 | =B2 B2 c8 B4 | c4 e8 f4 | d8 d4 d4- | d4 ^c4 d4 B4- | B4 c4 d2 c2 B2 A2 | %310
w: mun- * *|di, mi- se-|re- re no- *|bis, mi- se|re- re no-|* * bis, mi-|* se re- * * *|
w: |* do- na|no- bis pa- *|cem, do- na|no- bis pa-|* * cem, do-|* na no- * * *|
 G4 E4 (A8 | G8) F4 c4- | c4 G4 A4 A4 | f4 e4 d4 c4 | d2 c2 B2 c2 d8 | c16 |] %316
w: * re no-|* bis, mi-|* se- re- re,|mi- se- re- re|no- * * * *|bis.|
w: * bis pa-|* cem, do-|* na no- bis,|do- na no- bis|pa- * * * *|cem.|
V:4
 z16 | z16 | z16 | z16 | z16 | z16 | F,8 F,4 F,4 | G,8 A,4 F,4 | A,6 G,2 A,2 =B,2 C4- | %9
w: ||||||Ky- rie e-|lei- son, e-|lei- * * * *|
w: |||||||||
 C4 =B,4 C8 | z8 B,,8 | B,,4 B,,4 C,8 | D,4 B,,4 D,6 C,2 | D,2 E,2 F,8 E,4 | F,4 D,4 F,2 G,2 A,4- | %15
w: * * son,|Ky-|rie e- lei-|son, e- lei- *||son,, Ky- ri- * *|
w: ||||||
 A,2 G,2 F,2 E,2 D,4 D,4 | C,16 | F,16 || z8 F,8 | F,4 E,4 D,6 C,2 | B,,8 A,,4 A,4 | %21
w: * * * * e e-|lei-|son.|Chri-|ste e- lei *|* son, Chri-|
w: ||||||
 A,4 G,4 F,6 E,2 | D,8 C,8 | z4 F,4 G,2 A,2 B,2 G,2 | A,4 C4 G,8 | C,4 C,4 F,8 | C,16 || F,12 F,4 | %28
w: ste e- lei *|* son,|Chri- ste * * *|* e- lei-|son, e- lei-|son.|Ky- ri-|
w: |||||||
 C,2 D,2 E,2 F,2 G,4 A,4 | G,8 C,4 C4- | C4 C4 F,8 | B,6 A,2 G,4 D,4 | A,8 D,4 G,4 | %33
w: e _ _ _ _ e|lei- son, Ky-|* ri e|e- * * *|lei- son, Ky-|
w: |||||
 C,4 F,4 B,4 _E,4 | F,6 =E,2 D,8 | C,4 E,4 F,2 E,2 D,2 C,2 | B,,8 C,4 C,4 | A,,6 B,,2 C,8 | F,16 |] %39
w: * ri- e e-|lei- * *|son, e- lei- * * *|* son, e-|lei- * *|son.|
w: ||||||
[M:4/2] z16 | z16 | z16 | z16 | z8 F,8- | F,4 F,4 G,4 G,4 | A,4 F,4 A,2 =B,2 C4- | %46
w: ||||Et|_ in ter- ra|pax ho- mi- * *|
w: |||||||
 C4 =B,4 C4 C2 _B,2 | A,2 G,2 F,2 E,2 D,4 G,4 | C,4 E,4 F,8 | C,8 F,4 F,4 | _E,4 F,4 C,4 G,4 | %51
w: * ni bus, bo- *|* * * * * nae|vo- lun- ta-|* tis. Lau-|da- mus te. Be-|
w: |||||
 F,4 B,6 C2 G,4 | C,8 z8 | z16 | z4 F,4 B,,4 D,4 | C,6 C,2 F,4 F,4- | F,2 F,2 F,4 G,3 G, A,4 | %57
w: ne- di- ci- mus|te.||Glo- ri- fi-|ca- mus te. Gra-|* ti- as a- gi- mus|
w: ||||||
 G,8 C,2 C4 F,2 | B,4 F,4 G,3 G, D,4 | A,8 D,8 | z16 | z16 | z4 G,4 C,4 F,4 | B,,4 C,4 D,6 D,2 | %64
w: ti- bi prop- ter|mag- nam glo- ri- am|tu- am.|||De- us Pa-|ter o- mni- po-|
w: |||||||
 G,,4 G,6 G,2 B,4 | A,4 F,4 G,4 E,4 | F,4 G,4 C,8 | C16 | F,8 B,8- | B,8 A,8 | z8 G,6 G,2 | %71
w: tens. Do- mi- ne|Fi- li u- ni-|ge- ni- te|Je-|su Chri-|* ste.|Do- mi-|
w: |||||||
 E,4 F,8 D,4 | _E,4 E,4 C,8 | D,8 G,4 C4- | C4 A,4 G,8 | F,8 G,8 | C,4 C,6 C,2 C,4 | F,16 | C,16 || %79
w: ne De- us,|A- gnus De-|* i, Fi-|* li- us|Pa- *|tris, Fi- li- us|Pa-|tris.|
w: ||||||||
 z16 | z8 z4 C,4 | F,4 E,2 E,2 D,2 D,2 C,4 | B,,4 B,2 C2 G,2 A,2 G,4 | C,4 z2 C,2 G,4 F,2 F,2 | %84
w: |Qui|tol- lis pec- ca- ta mun-|di, mi- se- re- re no-|bis. Qui tol- lis pec-|
w: |||||
 E,2 E,2 D,4 C,4 z4 | z4 C6 C2 A,4 | B,2 G,2 A,2 F,2 G,2 A,2 G,4 | C,8 z8 | z16 | z4 F,8 F,4 | %90
w: ca- ta mun- di,|sus- ci- pe|de- pre- ca- ti- o- nem no-|stram.||mi- se-|
w: ||||||
 G,4 A,4 G,8 | C,4 C,8 F,4 | B,6 A,2 G,4 D,4 | A,8 D,4 D,2 D,2 | E,4 ^F,4 G,2 E,2 F,4 | G,8 z8 | %96
w: re- re no-|bis, mi- se-|re- * * re|no- bis. Quo- ni-|am tu so- lus sanc-|tus,|
w: ||||||
 z4 F,4 A,4 F,2 A,2 | G,3 G, F,4 B,8- | B,4 F,4 G,8 | A,8 D,8 | z16 | z8 F,4 F,2 E,2 | %102
w: tu so- lus al-|tis- si- mus Je-|* su Chri-|* ste.||Cum san- *|
w: ||||||
 D,4 B,,4 F,6 F,2 | B,,8 z8 | z16 | z4 F,4 F,3 F, E,4 | D,4 C,4 G,8 | C,4 F,4 F,3 F, E,4 | %108
w: * cto Spi- ri-|tu||in glo- ri- a|De- i Pa-|tris, in glo- ri- a|
w: ||||||
 D,4 C,4 B,,8- | B,,16 | C,16 | C,16 | C,16 | z4 F,6 E,2 D,2 C,2 | B,,16 | F,16 |][M:4/2] z16 | %117
w: De- i Pa-||tris.|A-|men,|A- * * *||men.||
w: |||||||||
 z16 | z16 | z16 | z16 | B,,8 B,,4 B,,4 | C,4 C,4 D,2 C,2 B,,2 C,2 | D,2 E,2 F,8 E,4 | %124
w: ||||Pa- trem om-|ni- po- ten- * * *||
w: |||||||
 F,4 D,4 G,4 B,4 | A,8 G,4 F,4 | G,8 C,4 F,4- | F,2 F,2 F,6 F,2 B,,4 | _E,4 G,4 D,4 D,2 C,2 | %129
w: tem, fac- to- rem|coe- li et|ter- rae, vi|* si- bi- li- um|om- ni- um et in|
w: |||||
 F,4 A,4 G,6 G,2 | C,4 C8 F,4 | B,4 G,4 A,6 A,2 | D,4 G,8 F,4 | B,8 F,4 G,4- | %134
w: vi- si- bi- li-|um. Et in|u- num Do- mi-|num Je- sum|Chri- stum Fi-|
w: |||||
 G,2 G,2 C,4 F,4 G,4 | C,4 D,4 B,,4 C,4 | F,4 F,2 F,2 C,4 F,4 | _E,4 F,4 G,4 C,4 | %138
w: * li- um De- i|u- ni- ge- ni-|tum, et ex pa- tre|na- tum an- te|
w: ||||
 F,3 F, A,4 F,4 G,4 | C,8 z8 | z4 F,4 F,2 E,2 D,3 D, | C,8 z4 z2 F,2 | B,,2 D,2 C,4 F,4 B,,4- | %143
w: om- ni- a sae- cu-|la|lu- men de lu- mi-|ne, de|De- o ve- ro. Ge-|
w: |||||
 B,,2 B,,2 B,,2 B,,2 _E,4 B,,4 | F,6 A,2 G,4 E,4 | D,4 E,4 F,4 G,4 | C,4 C,4 F,4 _E,4- | %147
w: * ni- tum non fac- tum|con- sub- stan- ti-|a- lem Pa- *|tri: per quem o-|
w: ||||
 E,2 _E,2 D,4 C,6 C,2 | B,,8 z8 | z4 z2 F,2 G,2 F,2 B,4 | F,2 A,2 G,4 C,8 | %151
w: * mni a fac- ta|sunt.|...et prop- ter no-|stram sa- lu- tem|
w: ||||
 z4 z2 F,2 D,4 B,,2 B,,2 | _E,6 D,2 C,8 | A,,6 B,,2 C,8 | F,16 || F,8 C,8- | C,4 F,4 _E,8 | %157
w: de- scen- dit de|coe- * *||lis.|Et in-|* car- na-|
w: ||||||
 F,8 C,4 G,4 | F,6 F,2 _E,8 | F,16 | B,,8 F,8- | F,4 F,4 G,4 A,4 | G,12 G,4 | C,8 C8- | %164
w: tus est de|Spi- ri- tu|san-|cto ex|_ Ma- ri- a|Vir- gi-|ne, ex|
w: |||||||
 C4 F,4 B,6 A,2 | G,4 D,4 A,8- | A,4 A,4 D,4 G,4 | F,12 G,4 | C,8 D,8 | G,4 C,4 F,4 A,4 | %170
w: _ Ma- ri- *|* a Vir-|* gi- ne: Et|ho- mo|fac- tus|est, et ho- mo|
w: ||||||
 G,12 G,4 | C,16 || z16 | z16 | z16 | z16 | z16 | z16 | z16 | z16 | z16 | z16 | z16 | z16 | z16 | %185
w: fac- tus|est.||||||||||||||
w: |||||||||||||||
 z16 | z16 | z16 ||"^Bass" F,8 F,3 F, F,2 E,2 | F,2 D,2 C,2 F,2 B,,3 B,, C,4 | %190
w: |||Et i- te- rum ven-|tu- rus est cum glo- ri- a,|
w: |||||
 D,2 C,2 F,4- F,2 E,D, E,4 | F,8 F,4 G,2 B,2 | A,2 G,2 F,4 z2 C,2 D,2 F,2 | E,2 D,2 C,4 F,6 D,2 | %194
w: ju- di- ca * * * *|re vi- vos et|mor- tu- os, vi- vos et|mor- tu- os: cu- jus|
w: ||||
 G,4 _E,2 E,2 D,2 G,2 ^F,4 | G,8 G,2 G,2 B,4 | A,4 D,4 G,6 F,2 | E,2 C,2 F,6 E,D, E,4 | %198
w: reg- ni non e- rit fi-|nis, cu- jus reg-|ni non e- *|* rit fi- * * *|
w: ||||
 !fermata!F,16 || F,6 F,2 A,3 A, B,4 | F,4 D,4 G,4 C,4 | F,4 F,2 A,2 G,2 F,2 G,4 | C,8 z8 | z16 | %204
w: nis.|Et in Spi- ri- tum|san- ctum Do- mi-|num, et vi- vi- fi- ca-|tem,||
w: ||||||
 z4 F,2 F,2 _E,4 B,,2 F,2 | G,2 G,2 C4 _B,2 G,2 A,2 F,2 | G,4 C,2 C,2 F,2 E,2 F,2 A,2 | %207
w: Qui cum Pa- tre et|Fi- li- o si- mul a- do-|ra- tur et con- glo- ri- fi-|
w: |||
 G,4 C,4 B,,6 C,2 | _E,4 F,4 C,4 C,2 D,2 | B,,4 C,4 F,8 | z16 | z2 A,2 F,2 A,2 G,3 G, F,2 A,2 | %212
w: ca- tur, qui lo-|cu- tus est per Pro-|phe- * tas.||Et a- po- sto- li- cam Ec-|
w: |||||
 F,4 G,4 C,4 C4 | F,3 D, F,2 G,2 A,2 B,2 A,4 | A,4 A,2 G,2 F,2 D,2 _E,2 C,2 | %215
w: cle- si- am. Con-|fi- te- or u- nem bap- tis-|ma in re- mis- si- o- nem|
w: |||
 D,2 _E,2 D,4 G,4 G,2 G,2 | A,6 G,2 F,2 E,2 D,2 B,,2 | F,2 D,2 _E,2 G,2 F,8 ||[M:3/2] B,,12 | z12 | %220
w: pec- ca- to- rum. Et ex-|spec- to re- sur- re- cti-|o- nem mor- tu- o-|rum.||
w: |||||
 z12 | z12 | z8 F,4 | F,4 F,4 E,4 | D,8 C,4 | G,8 G,4 | C,8 C,4 | B,,4 B,,4 C,4 | _E,8 F,4 | %229
w: ||et|vi- tam ven-|tu- ri|sae- cu-|li, et|vi- tam ven-|tu- ri|
w: |||||||||
 C,6 C,2 (E,4 | F,4) C,8 ||[M:4/2] F,4 F,6 E,2 D,2 C,2 | B,,16 | F,16 |][M:4/2] F,16 | %235
w: sae- cu- li.|_ A-|men, a- * * *||men.|San-|
w: ||||||
 G,8 A,2 G,2 F,2 G,2 | A,2 =B,2 C8 B,4 | C4 A,6 G,2 F,2 E,2 | F,2 D,2 G,4 C,8- | C,16- | C,8 z8 | %241
w: ctus, san- * * *||ctus, san- * * *|* * * ctus|_||
w: ||||||
 z16 | z4 F,6 F,2 E,4 | F,4 G,4 C,2 D,2 E,2 F,2 | G,4 B,4 F,8 | z4 F,6 F,2 E,4 | F,4 A,4 G,4 G,4 | %247
w: |Do- mi- nus|De- us Sa- * * *|* ba- oth,|Do- mi- nus|De- us Sa- ba-|
w: ||||||
 C,8 F,8 | F,4 C,4 G,8 | D,4 _E,4 D,8 | G,4 F,6 F,2 B,4 | _E,8 F,8 | B,,8 z8 | z16 | %254
w: oth. Ple-|ni sunt coe-|li et ter-|ra glo- ri- a|tu- *|a,||
w: |||||||
 z4 F,4 F,4 E,4 | D,4 C,4 G,8 | C,4 F,4 F,4 E,4 | D,4 C,4 B,,8 | B,,8 B,,8 | C,8 C,8 | C,8 C,8 | %261
w: Ho- san- na|in ex- cel-|sis, ho- san- na|in ex- cel-|sis, ho-|san- na|in ex-|
w: |||||||
 C,8 C,8 | z4 F,4 F,4 E,4 | D,6 C,2 B,,8- | B,,4 F,4 B,,8 | F,16 ||"^Bass" z16 | z8 F,8- | %268
w: cel- sis,|ho- san- na|in _ _|_ ex- cel-|sis.||Be-|
w: |||||||
 F,4 B,,4 _E,8 | D,2 C,2 D,2 E,2 F,4 G,4 | C,8 G,4 G,4 | D,4 E,4 F,4 D,4 | C,8 F,8 | %273
w: * ne- dic-|tus _ _ _ _ qui|ve- nit, qui|ve- * * *|* nit|
w: |||||
 z4 F,4 D,2 E,2 F,4 | B,,2 C,2 D,4 z4 B,4 | G,2 A,2 B,4 _E,2 F,2 G,2 G,2 | _E,2 E,2 G,4 E,4 F,4 || %277
w: in no- mi- ne|Do- mi- ni, in|no- mi- ne Do- mi- ni, in|no- mi- ne Do- mi-|
w: ||||
[M:3/2] B,,12 | z12 | z12 | z12 | z8 F,4 | F,8 E,4 | D,8 C,4 | G,12 | C,8 F,4 | B,,8 C,4 | %287
w: ni.||||ho-|san- na|in ex-|cel-|sis, ho-|san- na|
w: ||||||||||
 _E,8 F,4 | C,12 | F,12 |][M:4/2] z16 | z16 | z16 | z16 | z16 | z16 | z16 | B,,12 B,,4 | %298
w: in ex-|cel-|sis.||||||||A- gnus|
w: |||||||||||
 C,8 D,4 B,,4 | D,6 C,2 D,2 E,2 F,4- | F,4 E,4 F,4 B,4 | A,4 F,4 G,8 | C,4 F,4 D,4 F,4 | B,,8 C,8 | %304
w: De- i, qui|tol- * * * *|* * lis pec-|ca- ta mun-|di, pec- ca- ta|mun- *|
w: ||||||
 F,4 F,8 F,4 | G,4 A,4 G,8 | C,4 C8 F,4 | B,6 A,2 G,4 D,4 | A,8 D,4 G,4- | G,4 F,4 B,,8 | %310
w: di. mi- se-|re- re no-|bis, mi- se|re- * * re|no- bis, mi-|* se re-|
w: * do- na|no- bis pa-|cem, do- na|no- * * bis|pa- cem, do-|* na no-|
 C,8 A,,6 B,,2 | C,8 F,4 F,4- | F,4 E,4 D,6 C,2 | B,,12 F,4 | B,,16 | F,16 |] %316
w: re no- *|* bis, mi-|* se re- *|* re|no-|bis.|
w: bis pa- *|* cem, do-|* na no- *|* bis|pa-|cem.|

